X: 3
T: Sliabh Russell
R: jig
M: 6/8
L: 1/8
K: Bdor
|: fBB cde | fbg afe | fec dcB | cBA cde |
f2 B Bc/d/e | fbg afe | fec dcB | cBA Bc/d/e :|
|: f2 b fga | bag afe | fbb fga | gfe f2 e |
f2 b fga | bag afe | fec dcB |[1 cBA Bc/d/e :|[2 cBA B3 |]
K:Ador
|: eAA Bcd | eaf ged | edB cBA | BAG Bcd |
e2 A AB/c/d | eaf ged | edB cBA | BAG AB/c/d :|
|: e2 a efg | agf ged | eaa efg | fed e2 d |
e2 a efg | agf ged | edB cBA |[1 BAG AB/c/d :|[2 BAG A3 |]


Tune 335	Setting 13118

